img/logotypes/vsc.svg

<svg width="65" height="63" viewBox="0 0 65 63" fill="none" xmlns="http://www.w3.org/2000/svg">
<g opacity="0.78">
<mask id="mask0_26_121" style="mask-type:alpha" maskUnits="userSpaceOnUse" x="0" y="0" width="65" height="63">
<path d="M45.9135 62.497C46.4286 62.6927 46.9797 62.7831 47.5322 62.7624C48.0848 62.7417 48.6271 62.6104 49.1254 62.3767L62.4557 56.1267C63.1422 55.8046 63.7215 55.3002 64.1269 54.6715C64.5323 54.0429 64.7473 53.3154 64.7472 52.573V10.1931C64.7473 9.45065 64.5323 8.72327 64.1269 8.09463C63.7215 7.46599 63.1422 6.96164 62.4557 6.63958L49.1256 0.389333C48.3724 0.0361606 47.5251 -0.0801242 46.7011 0.0565747C45.877 0.193274 45.117 0.576195 44.5261 1.15234L19.0068 23.8383L7.89074 15.6165C7.38932 15.2456 6.77047 15.0575 6.14158 15.0847C5.51268 15.112 4.91342 15.3529 4.44777 15.7657L0.882669 18.9258C-0.292917 19.9677 -0.294186 21.7698 0.879622 22.8133L10.5197 31.383L0.879622 39.9525C-0.294186 40.9963 -0.292917 42.7981 0.882669 43.8402L4.44777 47.0001C4.91339 47.4129 5.51264 47.6539 6.14153 47.6812C6.77043 47.7085 7.38929 47.5204 7.89074 47.1495L19.0068 38.9275L44.5261 61.6135C44.9207 61.9985 45.3931 62.2994 45.9135 62.497ZM48.5703 17.0609L29.2069 31.383L48.5703 45.7049V17.0609Z" fill="white"/>
</mask>
<g mask="url(#mask0_26_121)">
<path d="M62.4953 6.64928L49.1545 0.390373C48.4011 0.036915 47.5535 -0.0796175 46.7291 0.0569015C45.9048 0.193421 45.1443 0.576241 44.553 1.15239L0.880099 39.9525C-0.294472 40.9963 -0.292948 42.7982 0.883145 43.8403L4.45053 47.0002C4.91657 47.4131 5.51619 47.654 6.14545 47.6813C6.77471 47.7086 7.39394 47.5205 7.89578 47.1496L60.4879 8.27301C62.2523 6.96893 64.7865 8.19508 64.7865 10.353V10.202C64.7865 9.45976 64.5715 8.73254 64.1661 8.10404C63.7608 7.47554 63.1817 6.97129 62.4953 6.64928Z" fill="#0065A9"/>
<path d="M62.4953 56.1159L49.1545 62.3749C48.4011 62.7282 47.5535 62.8447 46.7292 62.7082C45.9048 62.5717 45.1443 62.1889 44.553 61.6128L0.880099 22.8127C-0.294472 21.7691 -0.292948 19.967 0.883145 18.9252L4.45053 15.7651C4.9166 15.3522 5.51624 15.1113 6.1455 15.084C6.77476 15.0568 7.39397 15.2449 7.89578 15.6159L60.4879 54.4922C62.2523 55.7963 64.7865 54.5701 64.7865 52.412V52.5632C64.7865 53.3055 64.5714 54.0327 64.1661 54.6612C63.7608 55.2897 63.1816 55.7939 62.4953 56.1159Z" fill="#007ACC"/>
<path d="M49.1127 62.3798C48.359 62.733 47.5114 62.8493 46.687 62.7127C45.8625 62.5761 45.102 62.1932 44.5106 61.617C46.0038 63.0718 48.5574 62.0413 48.5574 59.9834V2.78904C48.5574 0.731112 46.0038 -0.299339 44.5106 1.15566C45.102 0.57947 45.8625 0.196552 46.6869 0.059863C47.5114 -0.0768265 48.359 0.039466 49.1127 0.392659L62.4511 6.64291C63.1379 6.96474 63.7175 7.46901 64.1231 8.09767C64.5287 8.72634 64.7439 9.45383 64.7439 10.1964V52.5765C64.7439 54.0919 63.8527 55.4734 62.4511 56.13L49.1127 62.38V62.3798Z" fill="#1F9CF0"/>
<path d="M45.9135 62.4964C46.4287 62.6921 46.9797 62.7824 47.5322 62.7618C48.0848 62.7411 48.6271 62.6098 49.1254 62.3762L62.4554 56.1259C63.142 55.8039 63.7214 55.2996 64.1268 54.6709C64.5322 54.0423 64.7473 53.3149 64.7472 52.5724V10.1925C64.7473 9.45009 64.5323 8.72271 64.1269 8.09407C63.7215 7.46543 63.1422 6.96107 62.4557 6.63902L49.1251 0.388521C48.3719 0.0354046 47.5247 -0.0808494 46.7007 0.0558482C45.8767 0.192546 45.1167 0.575435 44.5259 1.15152L19.0068 23.8378L7.89074 15.6159C7.38932 15.2451 6.77047 15.0569 6.14158 15.0842C5.51268 15.1114 4.91342 15.3523 4.44777 15.7651L0.882669 18.9253C-0.292917 19.9671 -0.294186 21.7692 0.879622 22.8128L10.5197 31.3825L0.879622 39.9519C-0.294186 40.9957 -0.292917 42.7976 0.882669 43.8397L4.44777 46.9995C4.91339 47.4124 5.51264 47.6533 6.14153 47.6806C6.77043 47.7079 7.38929 47.5198 7.89074 47.149L19.0068 38.9269L44.5259 61.6129C44.9205 61.998 45.393 62.2989 45.9135 62.4964ZM48.5703 17.0601L29.2069 31.3825L48.5703 45.7044V17.0603V17.0601Z" fill="url(#paint0_linear_26_121)" fill-opacity="0.25"/>
</g>
</g>
<defs>
<linearGradient id="paint0_linear_26_121" x1="32.3737" y1="0.00012207" x2="32.3737" y2="62.7647" gradientUnits="userSpaceOnUse">
<stop stop-color="white"/>
<stop offset="1" stop-color="white" stop-opacity="0"/>
</linearGradient>
</defs>
</svg>

<svg xmlns="http://www.w3.org/2000/svg" width="65" height="63" fill="none"><g opacity=".78"><mask id="a" width="65" height="63" x="0" y="0" maskUnits="userSpaceOnUse" style="mask-type:alpha"><path fill="#fff" d="M45.91 62.5a4.13 4.13 0 0 0 3.22-.12l13.33-6.25a4.01 4.01 0 0 0 1.67-1.46c.4-.63.62-1.35.62-2.1V10.2c0-.74-.22-1.47-.62-2.1a4.01 4.01 0 0 0-1.67-1.45L49.13.39a4.13 4.13 0 0 0-4.6.76L19 23.84 7.89 15.62a2.74 2.74 0 0 0-3.44.15L.88 18.93a2.58 2.58 0 0 0 0 3.88l9.64 8.57-9.64 8.57a2.58 2.58 0 0 0 0 3.89L4.45 47a2.73 2.73 0 0 0 3.44.15l11.12-8.22L44.53 61.6c.4.39.86.69 1.38.89Zm2.66-45.44L29.21 31.38 48.57 45.7V17.06Z"/></mask><g mask="url(#a)"><path fill="#0065A9" d="M62.5 6.65 49.15.39a4.13 4.13 0 0 0-4.6.76L.88 39.95a2.58 2.58 0 0 0 0 3.89L4.45 47a2.74 2.74 0 0 0 3.45.15L60.49 8.27c1.76-1.3 4.3-.07 4.3 2.08v-.15c0-.74-.22-1.47-.62-2.1a4.01 4.01 0 0 0-1.67-1.45Z"/><path fill="#007ACC" d="m62.5 56.12-13.35 6.25a4.13 4.13 0 0 1-4.6-.76L.88 22.81a2.58 2.58 0 0 1 0-3.88l3.57-3.16a2.74 2.74 0 0 1 3.45-.15l52.59 38.87c1.76 1.3 4.3.08 4.3-2.08v.15c0 .75-.22 1.47-.62 2.1-.4.63-.99 1.13-1.67 1.46Z"/><path fill="#1F9CF0" d="M49.11 62.38a4.13 4.13 0 0 1-4.6-.76c1.5 1.45 4.05.42 4.05-1.64V2.78C48.56.74 46-.3 44.5 1.17a4.07 4.07 0 0 1 4.6-.77l13.34 6.25c.69.32 1.27.83 1.67 1.46.4.63.62 1.35.62 2.1v42.38c0 1.51-.89 2.9-2.29 3.55l-13.34 6.25Z"/><path fill="url(#b)" fill-opacity=".25" d="M45.91 62.5a4.13 4.13 0 0 0 3.22-.12l13.33-6.25a4.01 4.01 0 0 0 1.67-1.46c.4-.63.62-1.36.62-2.1V10.2c0-.74-.22-1.47-.62-2.1a4.01 4.01 0 0 0-1.67-1.45L49.13.39a4.13 4.13 0 0 0-4.6.76L19 23.84 7.89 15.62a2.74 2.74 0 0 0-3.44.15L.88 18.93a2.58 2.58 0 0 0 0 3.88l9.64 8.57-9.64 8.57a2.59 2.59 0 0 0 0 3.89L4.45 47a2.73 2.73 0 0 0 3.44.15l11.12-8.22L44.53 61.6c.39.39.86.69 1.38.89Zm2.66-45.44L29.21 31.38 48.57 45.7V17.06Z"/></g></g><defs><linearGradient id="b" x1="32.37" x2="32.37" y1="0" y2="62.76" gradientUnits="userSpaceOnUse"><stop stop-color="#fff"/><stop offset="1" stop-color="#fff" stop-opacity="0"/></linearGradient></defs></svg>
